src/img/ico-wt.svg

<svg width="21" height="20" viewBox="0 0 21 20" fill="none" xmlns="http://www.w3.org/2000/svg">
<path fill-rule="evenodd" clip-rule="evenodd" d="M0.453613 10C0.453613 4.47715 4.93077 0 10.4536 0C15.9765 0 20.4536 4.47715 20.4536 10C20.4536 15.5228 15.9765 20 10.4536 20C8.43545 20 6.55693 19.4022 4.98548 18.3739C4.49966 17.9682 2.94703 17.6124 0.806223 19.7484L0.789779 19.7649L0.739298 19.7143L0.688764 19.6638L0.705229 19.6474C2.84117 17.5066 2.48546 15.954 2.0797 15.4681C1.05146 13.8967 0.453613 12.0182 0.453613 10ZM10.4536 17.8573C14.793 17.8573 18.3108 14.3395 18.3108 10.0001C18.3108 5.66073 14.793 2.14297 10.4536 2.14297C6.11423 2.14297 2.59647 5.66073 2.59647 10.0001C2.59647 14.3395 6.11423 17.8573 10.4536 17.8573Z" fill="url(#paint0_linear)"/>
<path d="M12.7655 15.2863C12.4243 15.2863 12.0859 15.2259 11.7551 15.1057C10.2975 14.5762 8.94449 13.7138 7.84237 12.6117C6.74026 11.5097 5.87785 10.1567 5.34837 8.69908C5.17822 8.23065 5.12801 7.74711 5.19918 7.26183C5.26585 6.80728 5.44192 6.366 5.70839 5.9857C5.97603 5.60372 6.33284 5.28601 6.74024 5.06693C7.17468 4.83331 7.64887 4.71484 8.14968 4.71484C8.30544 4.71484 8.44005 4.82367 8.47269 4.97596L8.99121 7.39571C9.01469 7.50528 8.98101 7.61929 8.90179 7.69853L8.01578 8.58451C8.8516 10.2463 10.2078 11.6025 11.8696 12.4383L12.7556 11.5523C12.8348 11.4731 12.9489 11.4394 13.0584 11.4629L15.4782 11.9814C15.6305 12.014 15.7393 12.1486 15.7393 12.3044C15.7393 12.8052 15.6208 13.2794 15.3872 13.7139C15.1681 14.1213 14.8504 14.4781 14.4684 14.7457C14.0881 15.0122 13.6468 15.1882 13.1923 15.2549C13.0498 15.2758 12.9074 15.2863 12.7655 15.2863Z" fill="url(#paint1_linear)"/>
<defs>
<linearGradient id="paint0_linear" x1="0.453613" y1="10" x2="20.4536" y2="10" gradientUnits="userSpaceOnUse">
<stop stop-color="#15DE41"/>
<stop offset="1" stop-color="#00AD98"/>
</linearGradient>
<linearGradient id="paint1_linear" x1="5.16785" y1="10.0006" x2="15.7393" y2="10.0006" gradientUnits="userSpaceOnUse">
<stop stop-color="#15DE41"/>
<stop offset="1" stop-color="#00AD98"/>
</linearGradient>
</defs>
</svg>

<svg width="21" height="20" viewBox="0 0 21 20" fill="none" xmlns="http://www.w3.org/2000/svg"><path fill-rule="evenodd" clip-rule="evenodd" d="M.454 10c0-5.523 4.477-10 10-10 5.522 0 10 4.477 10 10s-4.478 10-10 10a9.953 9.953 0 01-5.469-1.626c-.485-.406-2.038-.762-4.179 1.374l-.016.017-.05-.05-.051-.051.016-.017c2.136-2.14 1.78-3.693 1.375-4.179A9.953 9.953 0 01.454 10zm10 7.857a7.857 7.857 0 100-15.714 7.857 7.857 0 000 15.714z" fill="#FFB800"/><path d="M12.765 15.286c-.34 0-.68-.06-1.01-.18a10.775 10.775 0 01-3.913-2.494 10.773 10.773 0 01-2.494-3.913A2.924 2.924 0 015.2 7.262a2.993 2.993 0 011.54-2.195 2.944 2.944 0 011.41-.352.33.33 0 01.323.261l.518 2.42a.33.33 0 01-.09.303l-.885.886a8.695 8.695 0 003.854 3.853l.886-.886a.33.33 0 01.302-.09l2.42.52a.33.33 0 01.261.322c0 .501-.118.975-.352 1.41a3.005 3.005 0 01-2.195 1.54 2.79 2.79 0 01-.427.032z" fill="#FFB800"/></svg>
